logos/nuxt.svg

<?xml version="1.0" encoding="UTF-8"?>
<svg width="512px" height="121px" viewBox="0 0 512 121" version="1.1" xmlns="http://www.w3.org/2000/svg" preserveAspectRatio="xMidYMid">
    <title>Nuxt</title>
    <g>
        <path d="M103.405418,120.261336 L171.925052,120.261336 C174.101559,120.261336 176.239498,119.706204 178.124219,118.65048 C180.008941,117.594755 181.573828,116.076616 182.661497,114.247992 C183.749166,112.419757 184.32066,110.345707 184.32066,108.234648 C184.32066,106.123588 183.74566,104.050317 182.656043,102.222472 L136.640481,24.9118482 C135.552812,23.0838866 133.987925,21.5658639 132.103593,20.5104121 C130.219261,19.4549993 128.081711,18.8993221 125.905984,18.8993221 C123.729867,18.8993221 121.592317,19.4549993 119.707986,20.5104121 C117.823654,21.5658639 116.259156,23.0838866 115.171487,24.9118482 L103.405418,44.6928911 L80.400754,6.01165345 C79.312306,4.18380875 77.7470289,2.6660198 75.8623075,1.61076672 C73.9771966,0.555525325 71.8392572,0 69.6631403,0 C67.4870234,0 65.3490839,0.555525325 63.463973,1.61076672 C61.5792516,2.6660198 60.0139746,4.18380875 58.9255265,6.01165345 L1.66430987,102.222472 C0.574961956,104.050317 -1.42108547e-14,106.123588 -1.42108547e-14,108.234648 C-1.42108547e-14,110.345707 0.571206538,112.419757 1.65891438,114.247992 C2.74662222,116.076616 4.311537,117.594755 6.19621941,118.65048 C8.08094078,119.706204 10.2189971,120.261336 12.3953477,120.261336 L55.4061853,120.261336 C72.4477596,120.261336 85.0151658,113.000601 93.6627568,98.8351938 L114.657259,63.5673744 L125.902478,44.6928911 L159.651768,101.387242 L114.657259,101.387242 L103.405418,120.261336 Z M54.7049661,101.367764 L24.6889668,101.361141 L69.6830081,25.7733349 L92.1337094,63.5673744 L77.1019072,88.8280168 C71.3593116,98.0190526 64.8352461,101.367764 54.7049661,101.367764 Z" fill="#00DC82"></path>
        <path d="M215.040293,119.129256 L235.158662,119.129256 L235.158662,74.1160485 C235.158662,61.2350414 233.817385,48.3540344 233.817385,48.3540344 L235.002895,50.9952095 C236.874048,55.0830369 240.773826,63.2922194 245.351662,71.1436582 L272.846466,119.129256 L294.440122,119.129256 L294.440122,20.0437508 L274.187743,20.0437508 L274.189658,65.9060735 C274.246052,78.5042065 275.529019,90.9605023 275.529019,90.9605023 L274.515487,88.6654842 C272.72496,84.6794066 268.751372,76.1259764 264.128754,68.0294659 L236.499549,20.0437508 L215.040293,20.0437508 L215.040293,119.129256 Z M358.244836,47.7876051 L358.244836,86.855643 C358.244836,95.9150054 352.477697,102.70943 344.296417,102.70943 C336.65157,102.70943 331.286464,96.4810452 331.286464,87.8463099 L331.286464,47.7876051 L312.643772,47.7876051 L312.643772,92.2343838 C312.643772,108.512798 322.568751,120.261725 337.724435,120.261725 C346.97897,120.261725 354.489417,116.015064 358.244836,109.22064 L358.244836,119.129256 L377.021928,119.129256 L377.021928,47.7876051 L358.244836,47.7876051 Z M431.624698,82.0429419 L454.293556,47.7876051 L433.771207,47.7876051 L421.433645,66.6137822 L409.092187,47.7876051 L388.706187,47.7876051 L411.375045,81.9015294 L386.963657,119.129256 L406.949573,119.129256 L421.566098,97.188887 L436.05017,119.129256 L455.902464,119.129256 L431.624698,82.0429419 Z M475.252219,47.7876051 L462.240707,47.7876051 L462.240707,64.2074317 L475.252219,64.2074317 L475.252219,93.2254403 C475.252219,109.786679 485.310818,119.129256 500.870093,119.129256 L512,119.129256 L512,102.567628 L503.417856,102.567628 C497.383475,102.567628 493.892962,99.3120229 493.892962,92.3761859 L493.892962,64.2074317 L512,64.2074317 L512,47.7876051 L493.892962,47.7876051 L493.892962,26.6966068 L475.252219,26.6966068 L475.252219,47.7876051 Z" fill="#000000"></path>
    </g>
</svg>

<svg preserveAspectRatio="xMidYMid" viewBox="0 0 512 121" xmlns="http://www.w3.org/2000/svg">
  <path fill="#00DC82" d="M103.405 120.261h68.52c2.177 0 4.314-.555 6.2-1.61a12.213 12.213 0 0 0 4.536-4.403 11.754 11.754 0 0 0 1.66-6.013c0-2.111-.575-4.185-1.665-6.013l-46.016-77.31a12.215 12.215 0 0 0-4.536-4.402 12.69 12.69 0 0 0-6.198-1.61 12.69 12.69 0 0 0-6.198 1.61 12.214 12.214 0 0 0-4.537 4.402l-11.766 19.78-23.004-38.68a12.22 12.22 0 0 0-4.539-4.401A12.7 12.7 0 0 0 69.663 0a12.7 12.7 0 0 0-6.199 1.61 12.22 12.22 0 0 0-4.538 4.402l-57.262 96.21A11.737 11.737 0 0 0 0 108.235c0 2.11.571 4.185 1.659 6.013a12.214 12.214 0 0 0 4.537 4.402 12.692 12.692 0 0 0 6.2 1.611h43.01c17.042 0 29.61-7.26 38.257-21.426l20.994-35.268 11.245-18.874 33.75 56.694h-44.995l-11.252 18.874Zm-48.7-18.893-30.016-.007 44.994-75.588 22.45 37.794-15.031 25.261c-5.743 9.191-12.267 12.54-22.397 12.54Z"/>
  <path d="M215.04 119.13h20.119V74.115c0-12.881-1.342-25.762-1.342-25.762l1.186 2.641c1.871 4.088 5.77 12.297 10.349 20.149l27.494 47.985h21.594V20.044h-20.252l.002 45.862c.056 12.598 1.339 25.055 1.339 25.055l-1.014-2.296c-1.79-3.986-5.764-12.539-10.386-20.636l-27.63-47.985H215.04v99.085Zm143.205-71.342v39.068c0 9.059-5.767 15.853-13.949 15.853-7.644 0-13.01-6.228-13.01-14.863V47.788h-18.642v44.446c0 16.279 9.925 28.028 25.08 28.028 9.255 0 16.765-4.247 20.52-11.041v9.908h18.778V47.788h-18.777Zm73.38 34.255 22.669-34.255H433.77l-12.337 18.826-12.342-18.826h-20.386l22.669 34.114-24.411 37.227h19.986l14.616-21.94 14.484 21.94h19.852l-24.277-37.086Zm43.627-34.255h-13.011v16.42h13.011v29.017c0 16.562 10.059 25.904 25.618 25.904H512v-16.561h-8.582c-6.035 0-9.525-3.256-9.525-10.192V64.207H512v-16.42h-18.107v-21.09h-18.64v21.09Z"/>
</svg>
